X: 26250
T: Meeting John Hartford
R: jig
M: 6/8
K: Emajor
|G/A/|bge bge|bge e3|EGB gfe|BcB Bde|fgf fdf|
gfe dfb|gbg afd|fee e2:|[K:B]|:d/e/|fdB FBd|gfe dfb|
afe dec|Bdg fde fdB|FBd gfe dfb|afe dec|dBB B2:|

